packages/kaspersky-hexa-ui-icons/src/iconsSVGs/64x42/FlagSm.svg

<svg xmlns="http://www.w3.org/2000/svg" width="64" height="42" fill="none" viewBox="0 0 64 42"><g clip-path="url(#a)"><rect width="64" height="42" fill="#fff" rx="5"/><mask id="b" fill="#fff"><path fill-rule="evenodd" d="M0 25.5442h64V5c0-2.7614-2.2386-5-5-5H5C2.2386 0 0 2.2386 0 5z" clip-rule="evenodd"/></mask><path stroke="#f5f5f5" stroke-width="2" d="M0 25.5442h64V5c0-2.7614-2.2386-5-5-5H5C2.2386 0 0 2.2386 0 5z" clip-rule="evenodd" mask="url(#b)"/><path fill="#7cccf5" fill-rule="evenodd" d="M0 42h64V21H0z" clip-rule="evenodd"/><path fill="#445f42" d="M28.0626 21c0-.7248-.5876-1.3125-1.3125-1.3125s-1.3125.5877-1.3125 1.3125zm.6478 5.6794c.627.3638 1.4302.1505 1.794-.4765.3637-.627.1504-1.4301-.4766-1.7939zm5.4075-2.3591c-.6106.3906-.7891 1.2022-.3985 1.8129s1.2022.7891 1.8129.3985zM38.5627 21c0-.7249-.5876-1.3125-1.3125-1.3125s-1.3125.5876-1.3125 1.3125zm-13.1251 0c0 2.4276 1.3188 4.5457 3.2728 5.6794l1.3174-2.2704c-1.1778-.6835-1.9652-1.955-1.9652-3.409zm10.0947 5.5317c1.8195-1.1637 3.0304-3.2059 3.0304-5.5317h-2.625c0 1.3933-.7226 2.6186-1.8198 3.3203z"/><ellipse cx="32" cy="20" fill="#d89f3d" rx="3" ry="4"/></g><defs><clipPath id="a"><rect width="64" height="42" fill="#fff" rx="5"/></clipPath></defs></svg>

<svg width="64" height="42" viewBox="0 0 64 42" fill="none" xmlns="http://www.w3.org/2000/svg">
<g clip-path="url(#clip0_37941_2344)">
<rect width="64" height="42" rx="5" fill="white"/>
<mask id="path-2-inside-1_37941_2344" fill="white">
<path fill-rule="evenodd" clip-rule="evenodd" d="M0 25.5442H64V5C64 2.23858 61.7614 0 59 0H5C2.23858 0 0 2.23858 0 5V25.5442Z"/>
</mask>
<path fill-rule="evenodd" clip-rule="evenodd" d="M0 25.5442H64V5C64 2.23858 61.7614 0 59 0H5C2.23858 0 0 2.23858 0 5V25.5442Z" stroke="#F5F5F5" stroke-width="2" mask="url(#path-2-inside-1_37941_2344)"/>
<path fill-rule="evenodd" clip-rule="evenodd" d="M0 42H64V21H0V42Z" fill="#7CCCF5"/>
<path d="M28.0626 21C28.0626 20.2752 27.475 19.6875 26.7501 19.6875C26.0252 19.6875 25.4376 20.2752 25.4376 21H28.0626ZM28.7104 26.6794C29.3374 27.0432 30.1406 26.8299 30.5044 26.2029C30.8681 25.5759 30.6548 24.7728 30.0278 24.409L28.7104 26.6794ZM34.1179 24.3203C33.5073 24.7109 33.3288 25.5225 33.7194 26.1332C34.1099 26.7438 34.9216 26.9223 35.5323 26.5317L34.1179 24.3203ZM38.5627 21C38.5627 20.2751 37.9751 19.6875 37.2502 19.6875C36.5254 19.6875 35.9377 20.2751 35.9377 21H38.5627ZM25.4376 21C25.4376 23.4276 26.7564 25.5457 28.7104 26.6794L30.0278 24.409C28.85 23.7255 28.0626 22.454 28.0626 21H25.4376ZM35.5323 26.5317C37.3518 25.368 38.5627 23.3258 38.5627 21H35.9377C35.9377 22.3933 35.2151 23.6186 34.1179 24.3203L35.5323 26.5317Z" fill="#445F42"/>
<ellipse cx="32" cy="19.6873" rx="2.62501" ry="3.93751" fill="#D89F3D"/>
</g>
<defs>
<clipPath id="clip0_37941_2344">
<rect width="64" height="42" rx="5" fill="white"/>
</clipPath>
</defs>
</svg>
